client/public/svg/CardHomePage/cardHomepageTop.svg

<svg width="628" height="10" viewBox="0 0 628 10" fill="none" xmlns="http://www.w3.org/2000/svg">
<g clip-path="url(#clip0_985_937)">
<path d="M626 10H2.5L8 4L24.5 2.5L200 6L304 3L451.5 5.5L618 3.5L626 10Z" fill="#F9F7F2"/>
<path d="M4.91 9.99997C4.91488 9.95009 4.91488 9.89985 4.91 9.84997C5.32 6.50997 7.46 5.07997 10.75 4.91997C14.04 4.75997 17.34 3.78997 20.6 3.91997C25.83 4.10997 31 5.30997 36.21 5.38997C50.65 5.60997 65.21 5.28997 79.65 5.54997C88.46 5.70997 97.25 6.90997 106.06 6.99997C148.87 7.43997 191.68 7.93997 234.49 7.84997C259.12 7.78997 283.86 4.84997 308.36 6.33997C354.83 9.12997 401.28 7.27997 447.72 7.85997C470.36 8.13997 493 6.99997 515.65 6.99997C535.58 6.99997 555.58 7.82997 575.58 7.82997C587.15 7.82997 598.73 6.07997 610.28 6.26997C615.15 6.35997 618.96 7.69997 621.47 9.96997H627.41C625.49 5.38997 621.73 2.06997 615.89 -0.0300293H593.89C591.63 0.709971 589.35 2.07997 587.1 2.07997C576.83 1.95997 566.56 1.13997 556.29 1.13997C547.68 1.13997 539.06 1.97997 530.45 2.38997C523.65 2.70997 516.83 3.38997 510.05 3.08997C498.44 2.59997 486.87 1.49997 475.28 0.599971C474.468 0.465243 473.669 0.264578 472.89 -2.92975e-05H465.89C457.99 1.29997 450.08 3.73997 442.19 3.66997C425 3.51997 407.76 1.99997 390.54 1.21997C383.6 0.889971 376.6 1.21997 369.6 1.21997C351.987 1.1333 334.373 0.989971 316.76 0.789971C315.119 0.652002 313.491 0.387888 311.89 -2.92975e-05H304.89C299.23 0.749971 293.57 1.99997 287.89 2.11997C278.78 2.23997 269.65 1.60997 260.53 1.17997C258.95 0.947524 257.398 0.552081 255.9 -2.92975e-05H238.9C227.42 1.38997 216 3.79997 204.47 3.92997C185.2 4.12997 165.92 2.84997 146.64 2.23997C134.51 1.84997 122.37 1.56997 110.23 1.12997C108.096 0.903486 105.981 0.525872 103.9 -2.92975e-05H25.9C24.3843 0.809821 22.7977 1.47928 21.16 1.99997C19.6868 2.20001 18.1932 2.20001 16.72 1.99997C9.3 1.69997 3.11 3.34997 0 9.99997H4.91Z" fill="black"/>
</g>
<defs>
<clipPath id="clip0_985_937">
<rect width="627.41" height="10" fill="white"/>
</clipPath>
</defs>
</svg>

<svg xmlns="http://www.w3.org/2000/svg" viewBox="0 0 627.41 10"><g id="Calque_2" data-name="Calque 2"><g id="Calque_1-2" data-name="Calque 1"><path d="M4.91,10a.77.77,0,0,0,0-.15c.41-3.34,2.55-4.77,5.84-4.93s6.59-1.13,9.85-1C25.83,4.11,31,5.31,36.21,5.39c14.44.22,29-.1,43.44.16,8.81.16,17.6,1.36,26.41,1.45,42.81.44,85.62.94,128.43.85,24.63-.06,49.37-3,73.87-1.51,46.47,2.79,92.92.94,139.36,1.52C470.36,8.14,493,7,515.65,7c19.93,0,39.93.83,59.93.83,11.57,0,23.15-1.75,34.7-1.56,4.87.09,8.68,1.43,11.19,3.7h5.94c-1.92-4.58-5.68-7.9-11.52-10h-22c-2.26.74-4.54,2.11-6.79,2.11-10.27-.12-20.54-.94-30.81-.94-8.61,0-17.23.84-25.84,1.25-6.8.32-13.62,1-20.4.7C498.44,2.6,486.87,1.5,475.28.6A15.14,15.14,0,0,1,472.89,0h-7c-7.9,1.3-15.81,3.74-23.7,3.67C425,3.52,407.76,2,390.54,1.22c-6.94-.33-13.94,0-20.94,0q-26.42-.13-52.84-.43A32.09,32.09,0,0,1,311.89,0h-7c-5.66.75-11.32,2-17,2.12-9.11.12-18.24-.51-27.36-.94A23.13,23.13,0,0,1,255.9,0h-17C227.42,1.39,216,3.8,204.47,3.93c-19.27.2-38.55-1.08-57.83-1.69-12.13-.39-24.27-.67-36.41-1.11A45.37,45.37,0,0,1,103.9,0h-78a28.17,28.17,0,0,1-4.74,2,16.5,16.5,0,0,1-4.44,0C9.3,1.7,3.11,3.35,0,10Z"/></g></g></svg>
